X: 36
T: Dedicado \`a Jos
D:from La Boutine Souriante, "Je Voudrais Changer du Chapeau" album
B:Roaring Jelly collection
R:reel
M:C|
K:D
|:\
"Bm"B2Bc d2de | fgfd B3f | "F#m"fgfe c3f | "Bm"fgfd  B2F2 | "Bm"B2Bc dcde |
fgfd B3f |1 "F#m"fgfd cedc | "Bm"B2F2 "F#"G2F2 :|2 "F#m"fgfd cedc | "Bm"B4 "A7"A4 |]
|:\
"D"[f8A8] | "G"[g4B4]"E7"[^g4B4] | "A7"[a3c3][ac] [a4c4]- | [a2c2]g2 f2e2 | [a3c3][ac] [a4c4]- |
[a2c2]g2 f2e2 |1 "D"f2df dfdf | "A7"cfcf B2A2 :|2 "D"d3A "A7"BAFA | "D"Hd2z2 "F#7"[c4F4] |]

%%sep 1 1 500
